!!!!SEGMENT: pl-cz--ii-16--001-006_szlagorski-walenty--tance-galop.krn
!!!cenid: 18xx:1070
!!!COM: Szlagórski, Walenty
!!!COM-rismID: pe30111815
!!!CDT: 1801-1863/07/16
!!!CNT: Polish
!!!GTL: Tańce
!!!OTL: Galop
!!!OMV: 006
!!!PDT:
!!!AGN: Secular; Galop
!!!YEC: Copyright 2022 Narodowy Instytut Fryderyka Chopina (https://polishscores.org)
!!!YEM: License CC-BY-4.0 (https://creativecommons.org/licenses/by/4.0)
!!!SMS-siglum: PL-CZ
!!!SMS-shelfmark: II-16
!!!SMS-shelfwork: 001-006 G
!!!SMS-variant:
!!!SMS-altvar:
!!!NIFC-rismSourceID: 300001293
!!!NIFC-rismChildID: 300001299
!!!NIFC-islandoraID: pl-cz:32636
!!!URL-pdf-islandora: https://repozytorium.nifc.pl/islandora/object/pl-cz%3A32636/datastream/PDF/view
!!!URL-scan: https://polish.musicsources.pl/pl/lokalizacje/galeria/rekopisy/6770/1 @EN{Scan on Polish Music Sources Website} @PL{Skany w portalu Dziedzictwo Muzyki Polskiej w otwartym dostępie}
!!!IIIF:
!!!ONB-nifc: UWAGA: zbiór zawiera Walce nr 1-5, Galop, Mazury nr 1-4
!!!AIN: 1 cbass 1 clars 1 clrno 2 cor 1 flt 2 violn
!!!key: E
**kern	**kern	**kern	**kern	**kern	**kern	**dynam	**kern	**dynam	**kern-ori	**mod-kern	**dynam	**kern	**dynam	**kern	**dynam
*	*	*	*	*group2	*group2	*	*group2	*	*group1	*group1	*	*group1	*	*group1	*
*part9	*part8	*part7	*part7	*part6	*part5	*	*part4	*	*part3	*part3	*	*part2	*	*part1	*
*staff10	*staff9	*staff8	*staff7	*staff6	*staff5	*	*staff4	*	*staff3	*staff3	*	*staff2	*	*staff1	*
*>[A,B,B,C,C,D,D]	*>[A,B,B,C,C,D,D]	*>[A,B,B,C,C,D,D]	*>[A,B,B,C,C,D,D]	*>[A,B,B,C,C,D,D]	*>[A,B,B,C,C,D,D]	*>[A,B,B,C,C,D,D]	*>[A,B,B,C,C,D,D]	*>[A,B,B,C,C,D,D]	*>[A,B,B,C,C,D,D]	*>[A,B,B,C,C,D,D]	*>[A,B,B,C,C,D,D]	*>[A,B,B,C,C,D,D]	*>[A,B,B,C,C,D,D]	*>[A,B,B,C,C,D,D]	*
*>A	*>A	*>A	*>A	*>A	*>A	*>A	*>A	*>A	*>A	*>A	*>A	*>A	*>A	*>A	*
*I"Basso	*I"Violino 2.do	*I"Violino 1mo	*I"Violino 1mo	*I"Clarino in D.	*I"Corno 2do in D.	*	*I"Corno 1mo in D.	*	*I"Clarinetto 2do in A.	*I"Clarinetto II in A	*	*I"Clarinetto 1mo in A.	*	*I"Flauto	*
*mI"Contrabasso	*mI"Violino II	*mI"Violino I	*mI"Violino I	*mI"Clarino in E	*mI"Corno II in E	*	*mI"Corno I in E	*	*	*	*	*mI"Clarinetto I in A	*	*	*
*I'cb	*I'vl 2	*I'vl 1	*I'vl 1	*I'clno in D	*I'cor 2 in D	*	*I'cor 1 in D	*	*I'cl 2 in A	*I'cl 2 in A	*	*I'cl 1 in A	*	*I'fl	*
*	*	*	*	*mI'clno in E	*mI'cor 2 in E	*	*mI'cor 1 in E	*	*	*	*	*	*	*	*
*Icbass	*Ivioln	*Ivioln	*Ivioln	*Iclrno	*Icor	*	*Icor	*	*Iclars	*Iclars	*	*Iclars	*	*Iflt	*
*ICstr	*ICstr	*ICstr	*ICstr	*ICbras	*ICbras	*	*ICbras	*	*ICww	*ICww	*	*ICww	*	*ICww	*
*clefF4	*clefG2	*clefG2	*clefG2	*clefG2	*clefG2	*	*clefG2	*	*clefG2	*clefG2	*	*clefG2	*	*clefG2	*
*ITrd0c0	*	*	*	*ITrd-2c-4	*ITrd5c8	*	*ITrd5c8	*	*ITrd2c3	*ITrd2c3	*	*ITrd2c3	*	*	*
*kcancel	*kcancel	*kcancel	*kcancel	*kcancel	*kcancel	*	*kcancel	*	*kcancel	*kcancel	*	*kcancel	*	*kcancel	*
*k[f#c#g#d#]	*k[f#c#g#d#]	*k[f#c#g#d#]	*k[f#c#g#d#]	*k[f#c#g#d#]	*k[f#c#g#d#]	*	*k[f#c#g#d#]	*	*k[f#c#g#d#]	*k[f#c#g#d#]	*	*k[f#c#g#d#]	*	*k[f#c#g#d#]	*
*E:	*E:	*E:	*E:	*E:	*E:	*	*E:	*	*E:	*E:	*	*E:	*	*E:	*
*M2/4	*M2/4	*M2/4	*M2/4	*M2/4	*M2/4	*	*M2/4	*	*M2/4	*M2/4	*	*M2/4	*	*M2/4	*
=1	=1	=1	=1	=1	=1	=1	=1	=1	=1	=1	=1	=1	=1	=1	=1
!	!	!	!	!	!	!	!	!	!LO:TX:a:t=3	!	!	!LO:TX:a:i:t=in A.:rj:mod=	!	!	!
!	!	!	!	!LO:TX:a:i:t=in E.:rj:mod=	!LO:TX:a:i:t=in E.:rj:mod=	!	!LO:TX:a:i:t=in E:rj:mod=	!	!LO:TX:a:i:t=in A.:rj:mod=	!LO:TX:a:i:t=in A.:rj:mod=	!	!LO:TX:a:t=3:mod=	!	!LO:TX:a:t=4:mod=	!
8E\	8r	8r	8b\L	8b\L	8G#/	.	8e\	.	1r	2r	.	1r	.	0r	.
8r	8e 8G#/	8g#/	16ee\L	16ee\L	8r	.	8r	.	.	.	.	.	.	.	.
.	.	.	16b\JJ	16b\JJ	.	.	.	.	.	.	.	.	.	.	.
8E\	8r	8r	8g#/L	8g#/L	8G#/	.	8e\	.	.	.	.	.	.	.	.
8r	8e 8G#/	8g#/	16e/L	16e/L	8r	.	8r	.	.	.	.	.	.	.	.
.	.	.	16g#/JJ	16g#/JJ	.	.	.	.	.	.	.	.	.	.	.
=2	=2	=2	=2	=2	=2	=2	=2	=2	=2	=2	=2	=2	=2	=2	=2
*	*rep	*	*	*	*	*	*	*	*	*	*	*	*	*	*
8E\	8r	8r	8b\L	8b\L	8G#/	.	8e\	.	.	2r	.	.	.	.	.
8r	8e 8G#/	8g#/	16ee\L	16ee\L	8r	.	8r	.	.	.	.	.	.	.	.
.	.	.	16b\JJ	16b\JJ	.	.	.	.	.	.	.	.	.	.	.
8E\	8r	8r	8g#/L	8g#/L	8G#/	.	8e\	.	.	.	.	.	.	.	.
8r	8e 8G#/	8g#/	16e/L	16e/L	8r	.	8r	.	.	.	.	.	.	.	.
.	.	.	16g#/JJ	16g#/JJ	.	.	.	.	.	.	.	.	.	.	.
*	*Xrep	*	*	*	*	*	*	*	*	*	*	*	*	*	*
=3	=3	=3	=3	=3	=3	=3	=3	=3	=3	=3	=3	=3	=3	=3	=3
*	*rep	*	*	*	*	*	*	*	*	*	*	*	*	*	*
8E\	8r	8r	8b\L	8b\L	8G#/	.	8e\	.	2r	2r	.	2r	.	.	.
8r	8e 8G#/	8g#/	16ee\L	16ee\L	8r	.	8r	.	.	.	.	.	.	.	.
.	.	.	16b\JJ	16b\JJ	.	.	.	.	.	.	.	.	.	.	.
8E\	8r	8r	8g#/L	8g#/L	8G#/	.	8e\	.	.	.	.	.	.	.	.
8r	8e 8G#/	8g#/	16e/L	16e/L	8r	.	8r	.	.	.	.	.	.	.	.
.	.	.	16g#/JJ	16g#/JJ	.	.	.	.	.	.	.	.	.	.	.
*	*Xrep	*	*	*	*	*	*	*	*	*	*	*	*	*	*
=4	=4	=4	=4	=4	=4	=4	=4	=4	=4	=4	=4	=4	=4	=4	=4
8BB/L	8d#/L	8f#/L	8b\L	8b/L	8B\L	.	8f#\L	.	8dd#\L	8dd#\L	.	8ff#\L	.	.	.
8E/J	8e/J	8g#/J	8b\	8b/J	8e\J	.	8g#\J	.	8ee\J	8ee\J	.	8gg#\J	.	.	.
4BB/	8d#/	8f#/	8b\J	4b/	8B/	.	8f#\	.	8dd#\	8dd#\	.	8ff#\	.	.	.
.	8r	8r	8r	.	8r	.	8r	.	8r	8r	.	8r	.	.	.
=5!|:	=5!|:	=5!|:	=5!|:	=5!|:	=5!|:	=5!|:	=5!|:	=5!|:	=5!|:	=5!|:	=5!|:	=5!|:	=5!|:	=5!|:	=5!|:
*>B	*>B	*>B	*>B	*>B	*>B	*>B	*>B	*>B	*>B	*>B	*>B	*>B	*>B	*>B	*
!	!	!	!	!LO:TX:a:t=2:mod=	!LO:TX:a:t=2:mod=	!	!LO:TX:a:t=2:mod=	!	!	!	!	!	!	!	!
8E\	8r	8r	8bb\L	1r	1r	.	1r	.	4g#\	4g#\	.	(>8b\L	.	(>8bb\L	.
8r	8e 8G#/	8g#/	8ggg#\	.	.	.	.	.	.	.	.	8gg#\)	.	8ggg#\)	.
8E\	8r	8r	8fff#\	.	.	.	.	.	4r	4r	.	8ff#'>\	.	8fff#'>\	.
8r	8e 8G#/	8g#/	8eee\J	.	.	.	.	.	.	.	.	8ee'>\J	.	8eee'>\J	.
!	!	!LO:LB:g=original	!LO:LB:g=original	!	!	!	!	!	!	!	!	!	!	!	!
=6	=6	=6	=6	=6	=6	=6	=6	=6	=6	=6	=6	=6	=6	=6	=6
*	*rep	*	*	*	*	*	*	*	*	*	*	*	*	*	*
8E\	8r	8r	8eee\L	.	.	.	.	.	8r	8r	.	8ee\L	.	8eee\L	.
8r	8e 8G#/	8g#/	8bb\J	.	.	.	.	.	8g#\	8g#\	.	8b\	.	8bb\J	.
.	.	.	8qddd#/	.	.	.	.	.	.	.	.	8qdd#/	.	8qddd#/	.
!	!	!	!	!	!	!	!	!	!	!	!	!LO:SIC:v:o=8cc#\	!	!	!
8E\	8r	8r	8ccc#\L	.	.	.	.	.	8r	8r	.	(8cc#\	.	(>8ccc#\L	.
!	!	!	!	!	!	!	!	!	!	!	!	!LO:SIC:v:o=8b\J	!	!	!
8r	8e 8G#/	8g#/	8bb\J	.	.	.	.	.	8g#\	8g#\	.	8b\J)	.	8bb\J)	.
*	*Xrep	*	*	*	*	*	*	*	*	*	*	*	*	*	*
!LO:LB:g=original	!LO:LB:g=original	!	!	!	!	!	!	!	!	!	!	!	!	!	!
=7	=7	=7	=7	=7	=7	=7	=7	=7	=7	=7	=7	=7	=7	=7	=7
.	.	8qdd#/	8qddd#/	.	.	.	.	.	.	.	.	.	.	8qddd#/	.
8BB/	8r	(8cc#\L	8ccc#\L	8b/	8B/	.	8f#\	.	8r	8r	.	8r	.	(>8ccc#\L	.
!	!	!	!	!	!	!	!	!	!	!	!	!LO:TX:t=P:problem=♮ przed pauzą:mod=	!	!	!
!	!	!	!	!	!	!	!	!	!	!	!	!LO:MO:mod=8a\	!	!	!
8r	8a 8B/	8b\J)	8bb\J	8r	8r	.	8r	.	8f#\	8f#\	.	8an\	.	8bb\J)	.
.	.	8qdd#/	8qddd#/	.	.	.	.	.	.	.	.	.	.	8qddd#/	.
8B\	8r	8cc#\L	8ccc#\L	8b/	8B/	.	8f#\	.	8r	8r	.	8r	.	(>8ccc#\L	.
8r	8a 8B/	8b\J	8bb\J	8r	8r	.	8r	.	8f#\	8f#\	.	8a\	.	8bb\J)	.
!	!	!	!	!	!	!	!	!	!	!	!	!	!	!LO:LB:g=original	!
=8	=8	=8	=8	=8	=8	=8	=8	=8	=8	=8	=8	=8	=8	=8	=8
*	*rep	*	*	*	*	*	*	*	*	*	*	*	*	*	*
8BB/	8r	8b\L	8bb\L	8b/L	8B/L	.	8f#\L	.	8r	8r	.	8r	.	8bb\L	.
8r	8a 8B/	16dd#\L	16ddd#\L	8b/J	8B/J	.	8f#\J	.	8f#\	8f#\	.	8a\	.	16ddd#\L	.
.	.	16ff#\JJ	16fff#\JJ	.	.	.	.	.	.	.	.	.	.	16fff#\JJ	.
!	!	!LO:TX:t=P:problem=mixed beam:mod=	!	!	!	!	!	!	!	!	!	!	!	!	!
8BB/	8r	8bb\L	8bb\L	4b/	4B/	.	4f#\	.	8r	8r	.	8r	.	8bb\L	.
8r	8a 8B/	8b/J	8bb\J	.	.	.	.	.	8f#\	8f#\	.	8a\	.	8bb\J	.
*	*Xrep	*	*	*	*	*	*	*	*	*	*	*	*	*	*
!	!	!	!	!LO:LB:g=original	!	!	!LO:LB:g=original	!	!	!	!	!LO:LB:g=original	!	!	!
=9	=9	=9	=9	=9	=9	=9	=9	=9	=9	=9	=9	=9	=9	=9	=9
!	!	!	!	!LO:TX:a:t=2:mod=	!LO:TX:a:t=2:mod=	!	!LO:TX:a:t=2:mod=	!	!	!	!	!	!	!	!
8E\	8r	8r	(>8bb\L	1r	1r	.	1r	.	4g#\	4g#\	.	(>8b\L	.	(>8bb\L	.
8r	8e 8B/	8g#/	8ggg#\)	.	.	.	.	.	.	.	.	8gg#\)	.	8ggg#\)	.
8E\	8r	8r	8fff#'>\	.	.	.	.	.	4r	4r	.	8ff#'>\	.	8fff#'>\	.
8r	8e 8B/	8g#/	8eee'>\J	.	.	.	.	.	.	.	.	8ee'>\J	.	8eee'>\J	.
=10	=10	=10	=10	=10	=10	=10	=10	=10	=10	=10	=10	=10	=10	=10	=10
*	*rep	*	*	*	*	*	*	*	*	*	*	*	*	*	*
!	!	!	!	!	!	!	!	!	!	!	!	!LO:SIC:v:o=8ee\L	!	!	!
8E\	8r	8r	8eee\L	.	.	.	.	.	4g#\	4g#\	.	(8ee\L	.	(>8eee\L	.
!	!	!	!	!	!	!	!	!	!	!	!	!LO:SIC:v:o=8b\	!	!	!
8r	8e 8B/	8g#/	8bb\J	.	.	.	.	.	.	.	.	8b\)	.	8bb\J)	.
.	.	.	8qddd#/	.	.	.	.	.	.	.	.	8qdd#/	.	8qddd#/	.
!	!	!	!	!	!	!	!	!	!	!	!	!LO:SIC:v:o=8cc#\	!	!	!
8E\	8r	8r	8ccc#\L	.	.	.	.	.	4r	4r	.	(8cc#\	.	(>8ccc#\L	.
!	!	!	!	!	!	!	!	!	!	!	!	!LO:SIC:v:o=8b\J	!	!	!
8r	8e 8B/	8g#/	8bb\J	.	.	.	.	.	.	.	.	8b\J)	.	8bb\J)	.
*	*Xrep	*	*	*	*	*	*	*	*	*	*	*	*	*	*
=11	=11	=11	=11	=11	=11	=11	=11	=11	=11	=11	=11	=11	=11	=11	=11
.	.	8qdd#/	8qddd#/	.	.	.	.	.	.	.	.	.	.	8qddd#/	.
8BB/	8r	(8cc#\L	8ccc#\L	8b/	8B/	.	8f#\	.	8r	8r	.	8r	.	(>8ccc#\L	.
!	!	!	!	!	!	!	!	!	!	!	!	!LO:MO:mod=8a\	!	!	!
8r	8a 8B/	8b\J)	8bb\J	8r	8r	.	8r	.	8f#\	8f#\	.	8an\	.	8bb\J)	.
8BB/	8r	8bb\L	8fff#\L	8b/	8B/	.	8f#\	.	8r	8r	.	8r	.	8fff#\L	.
8r	8a 8B/	8dd#\J	8bb\J	8r	8r	.	8r	.	8f#\	8f#\	.	8a\	.	8bb\J	.
!	!	!	!	!	!LO:LB:g=original	!	!	!	!LO:LB:g=original	!LO:LB:g=original	!	!	!	!	!
=12	=12	=12	=12	=12	=12	=12	=12	=12	=12	=12	=12	=12	=12	=12	=12
8E\L	8g#L 8B/	8ee\L	8ee\L	8e/L	8G#/L	.	8e\L	.	8e\L	8e\L	.	8g#\L	.	8ee'>\L	.
8E\J	8g# 8B/	16gg#\L	16gg#\L	8e/J	8G#/J	.	8e\J	.	8e\J	8e\J	.	8g#\J	.	(>16gg#\L	.
.	.	16bb\JJ	16bb\JJ	.	.	.	.	.	.	.	.	.	.	16bb\JJ)	.
4E\	8g#J 8B/	4eee\	4eee\	4e/	8G#/	.	8e\	.	8e\	8e\	.	8g#\	.	8eee\	.
.	8r	.	.	.	8r	.	8r	.	8r	8r	.	8r	.	8r	.
!	!	!LO:LB:g=original	!LO:LB:g=original	!	!	!	!	!	!	!	!	!	!	!	!
=13:|!|:	=13:|!|:	=13:|!|:	=13:|!|:	=13:|!|:	=13:|!|:	=13:|!|:	=13:|!|:	=13:|!|:	=13:|!|:	=13:|!|:	=13:|!|:	=13:|!|:	=13:|!|:	=13:|!|:	=13:|!|:
*>C	*>C	*>C	*>C	*>C	*>C	*>C	*>C	*>C	*>C	*>C	*>C	*>C	*>C	*>C	*
!	!	!	!	!LO:TX:a:t=2:mod=	!	!LO:DY:b:rj	!	!LO:DY:b:rj	!LO:TX:a:t=2	!	!LO:MO:mod= 	!	!	!	!
8BB/	8r	8r	8bb\L	1r	4B/	p	4f#\	p	1r	2r	p	8b'>\L	p	8bb'>\L	p
*	*	*tremolo	*	*	*	*	*	*	*	*	*	*	*	*	*
!	!	!	!LO:SIC:v:o=(>16ddd#\L	!	!	!	!	!	!	!	!	!	!	!	!
8r	8f#/L	8a 8B/L	(16ccc#\L	.	.	.	.	.	.	.	.	(>16cc#\L	.	(>16ccc#\L	.
.	.	.	16bb\JJ)	.	.	.	.	.	.	.	.	16b\JJ)	.	16bb\JJ)	.
!	!	!	!	!	!	!	!	!	!	!	!	!LO:SIC:v:o=8a\L	!	!	!
8BB/	8f#/	8a 8B/	8aa\L	.	4B/	.	4f#\	.	.	.	.	8a'\L	.	8aa'>\L	.
!	!	!	!	!	!	!	!	!	!	!	!	!LO:SIC:v:o=8f#\J	!	!	!
8r	8f#/J	8a 8B/J	8ff#\J	.	.	.	.	.	.	.	.	8f#'\J	.	8ff#'>\J	.
*	*	*Xtremolo	*	*	*	*	*	*	*	*	*	*	*	*	*
!	!	!	!	!	!	!	!	!	!	!	!	!	!	!LO:LB:g=original	!
=14	=14	=14	=14	=14	=14	=14	=14	=14	=14	=14	=14	=14	=14	=14	=14
!	!	!	!	!	!	!	!	!	!	!	!	!LO:SIC:v:o=8e\L	!	!	!
8E\	8r	8r	8ee\L	.	4G#/	.	4e\	.	.	2r	.	8e'\L	.	8ee'>\L	.
*	*	*tremolo	*	*	*	*	*	*	*	*	*	*	*	*	*
8r	8e/L	8g# 8B/L	16gg#\L	.	.	.	.	.	.	.	.	(>16g#\L	.	(>16gg#\L	.
.	.	.	16bb\JJ	.	.	.	.	.	.	.	.	16b\JJ)	.	16bb\JJ)	.
8E\	8e/	8g# 8B/	4eee\	.	4G#/	.	4e\	.	.	.	.	4ee\	.	4eee\	.
8r	8e/J	8g# 8B/J	.	.	.	.	.	.	.	.	.	.	.	.	.
*	*	*Xtremolo	*	*	*	*	*	*	*	*	*	*	*	*	*
!LO:LB:g=original	!LO:LB:g=original	!	!	!	!	!	!	!	!	!	!	!LO:LB:g=original	!	!	!
=15	=15	=15	=15	=15	=15	=15	=15	=15	=15	=15	=15	=15	=15	=15	=15
!	!	!	!	!	!LO:TX:a:t=2:mod=	!	!LO:TX:a:t=2:mod=	!	!	!	!LO:DY:t= :mod=%s	!LO:SIC:v:o=8dd#\L	!	!	!
8BB/	8r	8r	8ddd#'>\L	8b/	1r	.	1r	.	4a\	4a\	p	8dd#'\L	.	8ddd#'>\L	.
8r	8f#/	8a 8B/	(>16eee\L	8r	.	.	.	.	.	.	.	(>16ee\L	.	(>16eee\L	.
.	.	.	16fff#\JJ)	.	.	.	.	.	.	.	.	16ff#\JJ)	.	16fff#\JJ)	.
!	!	!	!	!	!	!	!	!	!	!	!	!LO:SIC:v:o=8a\L	!	!	!
8BB/	8r	8r	8aa'>\L	8b/	.	.	.	.	4f#\	4f#\	.	8a'\L	.	8aa'>\L	.
8r	8f#/	8a 8B/	(>16bb\L	8r	.	.	.	.	.	.	.	(>16b\L	.	(>16bb\L	.
.	.	.	16ccc#\JJ)	.	.	.	.	.	.	.	.	16cc#\JJ)	.	16ccc#\JJ)	.
=16	=16	=16	=16	=16	=16	=16	=16	=16	=16	=16	=16	=16	=16	=16	=16
!	!	!	!	!	!	!	!	!	!	!	!	!	!	!LO:SIC:v:o=8ccc#\L	!
8E\	8r	8r	8ccc#\L	8e/L	.	.	.	.	4e\	4e\	.	8cc#'>\L	.	8ccc#'\L	.
!	!	!	!	!	!	!	!	!	!	!	!	!	!	!LO:SIC:v:o=8bb\J	!
8r	8e/	8g# 8B/	8bb\J	8e/J	.	.	.	.	.	.	.	8b'>\J	.	8bb'\J	.
8E\	8r	8r	4gg#\	4e/	.	.	.	.	4e\	4e\	.	4g#\	.	4gg#\	.
8r	8e/	8g# 8B/	.	.	.	.	.	.	.	.	.	.	.	.	.
=17	=17	=17	=17	=17	=17	=17	=17	=17	=17	=17	=17	=17	=17	=17	=17
!	!	!	!	!LO:TX:t=P:problem=brak taktów nr 17-19:mod=	!	!	!	!	!LO:TX:a:t=1	!	!	!LO:SIC:v:o=8b\L	!	!	!
8BB/	8r	8r	8bb\L	2ryy	4B/	.	4f#\	.	2r	2r	.	8b'\L	.	8bb'>\L	.
*	*	*tremolo	*	*	*	*	*	*	*	*	*	*	*	*	*
!	!	!	!	!	!	!	!	!	!	!	!	!LO:SIC:v:o=16cc#\L	!	!	!
8r	8f#/L	8a 8B/L	16ccc#\L	.	.	.	.	.	.	.	.	(16cc#\L	.	(>16ccc#\L	.
!	!	!	!	!	!	!	!	!	!	!	!	!LO:SIC:v:o=16b\JJ	!	!	!
.	.	.	16bb\JJ	.	.	.	.	.	.	.	.	16b\JJ)	.	16bb\JJ)	.
!	!	!	!	!	!	!	!	!	!	!	!	!LO:SIC:v:o=8a\L	!	!	!
8BB/	8f#/	8a 8B/	8aa\L	.	4B/	.	4f#\	.	.	.	.	8a'\L	.	8aa'>\L	.
!	!	!	!	!	!	!	!	!	!	!	!	!LO:SIC:v:o=8f#\J	!	!	!
8r	8f#/J	8a 8B/J	8ff#\J	.	.	.	.	.	.	.	.	8f#'\J	.	8ff#'>\J	.
*	*	*Xtremolo	*	*	*	*	*	*	*	*	*	*	*	*	*
=18	=18	=18	=18	=18	=18	=18	=18	=18	=18	=18	=18	=18	=18	=18	=18
!	!	!	!	!	!	!	!	!	!	!	!	!LO:SIC:v:o=8e\L	!	!	!
8E\	8r	8r	8ee\L	2ryy	4G#/	.	4e\	.	4r	4r	.	8e'\L	.	8ee'>\L	.
8r	8e/	8g# 8B/	16gg#\L	.	.	.	.	.	.	.	.	(>16g#\L	.	(>16gg#\L	.
!	!	!	!	!	!	!	!	!	!	!	!	!LO:SIC:v:o=16b\JJ	!	!	!
.	.	.	16bb\JJ	.	.	.	.	.	.	.	.	16b\JJ)	.	16bb\JJ)	.
!	!	!	!	!	!	!	!	!	!	!	!	!LO:SIC:v:o=8ee\L)	!	!	!
8C#/	8r	8r	8eee\L	.	4e\	.	4g#\	.	4c#/	4c#/	.	8ee\L	.	8eee\L	.
8r	8e 8c#/	8g#/	8ddd#\J	.	.	.	.	.	.	.	.	8dd#\J	.	8ddd#\J	.
!	!	!LO:LB:g=original	!LO:LB:g=original	!	!	!	!	!	!	!	!	!	!	!	!
=19	=19	=19	=19	=19	=19	=19	=19	=19	=19	=19	=19	=19	=19	=19	=19
!	!	!	!	!	!	!	!	!	!	!	!	!LO:SIC:v:o=8cc#\L	!	!	!
8F#\	8r	8r	8ccc#\L	2ryy	4e\	.	4f#\	.	4e/	4e/	.	8cc#'\L	.	8ccc#'>\L	.
!	!	!	!	!	!	!	!	!	!	!	!	!LO:SIC:v:o=16b\L	!	!	!
8r	8e 8c#/	8a#X/	16bb\L	.	.	.	.	.	.	.	.	(16b\L	.	(>16bb\L	.
!	!	!	!	!	!	!	!	!	!	!	!	!LO:SIC:v:o=16cc#\JJ	!	!	!
.	.	.	16ccc#\JJ	.	.	.	.	.	.	.	.	16cc#\JJ)	.	16ccc#\JJ)	.
!	!	!	!	!	!	!	!	!	!	!	!	!LO:SIC:v:o=8dd#\L	!	!	!
8F#\	8r	8r	8ddd#\L	.	4e\	.	4f#\	.	4e/	4e/	.	8dd#'\L	.	8ddd#'>\L	.
!	!	!	!	!	!	!	!	!	!	!	!	!LO:SIC:v:o=8cc#\J	!	!	!
8r	8e 8c#/	8a#/	8ccc#\J	.	.	.	.	.	.	.	.	8cc#'\J	.	8ccc#'>\J	.
!	!	!	!	!	!	!	!	!	!	!	!	!	!	!LO:LB:g=original	!
=20	=20	=20	=20	=20	=20	=20	=20	=20	=20	=20	=20	=20	=20	=20	=20
!LO:TX:t=P:problem=mixed beam:mod=	!	!LO:TX:t=P:problem=mixed beam:mod=	!	!	!	!	!	!	!	!	!	!	!	!	!
8BB/L	8d#L 8B/	8b/L	8bb\L	8b/L	8B/L	.	8f#\L	.	8d#/L	8d#/L	.	8b\L	.	8bb\L	.
8B\J	8d# 8B/	8bb\J	8bb\J	8b/J	8B/J	.	8f#\J	.	8d#/J	8d#/J	.	8b\J	.	8bb\	.
8BB/	8d#J 8B/	4b\	4bb\	8b/	8B/	.	8f#\	.	8d#/	8d#/	.	8b\	.	8bb\J	.
8r	8r	.	.	8r	8r	.	8r	.	8r	8r	.	8r	.	8r	.
!	!	!	!	!	!	!	!LO:LB:g=original	!	!	!	!	!LO:LB:g=original	!	!	!
=21	=21	=21	=21	=21	=21	=21	=21	=21	=21	=21	=21	=21	=21	=21	=21
!	!	!	!	!LO:TX:a:t=2:mod=	!LO:TX:a:t=2:mod=	!	!LO:TX:a:t=2:mod=	!	!LO:TX:a:t=2	!	!	!	!	!	!
8E\	8r	8r	(>8bb\L	1r	1r	.	1r	.	1r	2r	.	(>8b\L	.	(>8bb\L	.
8r	8e 8B/	8g#/	8ggg#\)	.	.	.	.	.	.	.	.	8gg#\)	.	8ggg#\)	.
8E\	8r	8r	8fff#\	.	.	.	.	.	.	.	.	8ff#'>\	.	8fff#'>\	.
8r	8e 8B/	8g#/	8eee\J	.	.	.	.	.	.	.	.	8ee'>\J	.	8eee'>\J	.
=22	=22	=22	=22	=22	=22	=22	=22	=22	=22	=22	=22	=22	=22	=22	=22
8E\	8r	8r	8eee\L	.	.	.	.	.	.	2r	.	8ee\L	.	8eee\L	.
8r	8e 8B/	8g#/	8bb\J	.	.	.	.	.	.	.	.	8b\	.	8bb\J	.
.	.	.	8qddd#/	.	.	.	.	.	.	.	.	8qdd#/	.	8qddd#/	.
!	!	!	!	!	!	!	!	!	!	!	!	!LO:SIC:v:o=8cc#\	!	!	!
8E\	8r	8r	8ccc#\L	.	.	.	.	.	.	.	.	(8cc#\	.	(>8ccc#\L	.
!	!	!	!	!	!	!	!	!	!	!	!	!LO:SIC:v:o=8b\J	!	!	!
8r	8e 8B/	8g#/	8bb\J	.	.	.	.	.	.	.	.	8b\J)	.	8bb\J)	.
!LO:LB:g=original	!LO:LB:g=original	!	!	!	!	!	!	!	!	!	!	!	!	!	!
=23	=23	=23	=23	=23	=23	=23	=23	=23	=23	=23	=23	=23	=23	=23	=23
.	.	8qdd#/	8qddd#/	.	.	.	.	.	.	.	.	.	.	8qddd#/	.
8BB/	8r	8cc#\L	8ccc#\L	8b/	8B/	.	8f#\	.	4a\	8r	.	8r	.	(>8ccc#\L	.
!	!	!	!	!	!	!	!	!	!	!	!	!LO:MO:mod=8a\	!	!	!
8r	8a 8B/	8b\J	8bb\J	8r	8r	.	8r	.	.	8f#/	.	8an\	.	8bb\J)	.
.	.	8qdd#/	8qddd#/	.	.	.	.	.	.	.	.	.	.	8qddd#/	.
8B\	8r	8cc#\L	8ccc#\L	8b/	8B/	.	8f#\	.	4f#\	8r	.	8r	.	(>8ccc#\L	.
8r	8a 8B/	8b\J	8bb\J	8r	8r	.	8r	.	.	8f#/	.	8a\	.	8bb\J)	.
=24	=24	=24	=24	=24	=24	=24	=24	=24	=24	=24	=24	=24	=24	=24	=24
8BB/	8r	8b\L	8bb\L	8b/L	8B/L	.	8f#\L	.	4e\	8r	.	8r	.	8bb\L	.
8r	8a 8B/	16dd#\L	16ddd#\L	8b/J	8B/J	.	8f#\J	.	.	8f#/	.	8a\	.	16ddd#\L	.
.	.	16ff#\JJ	16fff#\JJ	.	.	.	.	.	.	.	.	.	.	16fff#\JJ	.
!	!	!LO:TX:t=P:problem=mixed beam:mod=	!	!	!	!	!	!	!	!	!	!	!	!	!
8BB/	8r	8bb\L	8bb\L	4b/	4B/	.	4f#\	.	4e\	8r	.	8r	.	8bb\L	.
8r	8a 8B/	8b/J	8bb\J	.	.	.	.	.	.	8f#/	.	8a\	.	8bb\J	.
!	!	!LO:LB:g=original	!LO:LB:g=original	!LO:LB:g=original	!LO:LB:g=original	!	!	!	!	!	!	!	!	!	!
=25	=25	=25	=25	=25	=25	=25	=25	=25	=25	=25	=25	=25	=25	=25	=25
!	!	!	!	!LO:TX:a:t=2:mod=	!LO:TX:a:t=2:mod=	!	!LO:TX:a:t=2:mod=	!	!LO:TX:a:t=1	!	!	!	!	!LO:SIC:v:o=8bb\L	!
8E\	8r	8r	8bb\L	1r	1r	.	1r	.	2r	4g#\	.	(>8b\L	.	(8bb\L	.
!	!	!	!	!	!	!	!	!	!	!	!	!	!	!LO:SIC:v:o=8ggg#\	!
8r	8e 8B/	8g#/	8ggg#\	.	.	.	.	.	.	.	.	8gg#\)	.	8ggg#\)	.
!	!	!	!	!	!	!	!	!	!	!	!	!	!	!LO:SIC:v:o=8fff#\	!
8E\	8r	8r	8fff#\	.	.	.	.	.	.	4r	.	8ff#'>\	.	8fff#'\	.
!	!	!	!	!	!	!	!	!	!	!	!	!	!	!LO:SIC:v:o=8eee\J	!
8r	8e 8B/	8g#/	8eee\J	.	.	.	.	.	.	.	.	8ee'>\J	.	8eee'\J	.
!	!	!	!	!	!	!	!	!	!LO:LB:g=original	!LO:LB:g=original	!	!	!	!LO:LB:g=original	!
=26	=26	=26	=26	=26	=26	=26	=26	=26	=26	=26	=26	=26	=26	=26	=26
*	*rep	*	*	*	*	*	*	*	*	*	*	*	*	*	*
8E\	8r	8r	8eee\L	.	.	.	.	.	4r	4g#\	.	8ee\L	.	8eee\L	.
8r	8e 8B/	8g#/	8bb\J	.	.	.	.	.	.	.	.	8b\	.	8bb\J	.
.	.	.	8qddd#/	.	.	.	.	.	.	.	.	8qdd#/	.	8qddd#/	.
!	!	!	!	!	!	!	!	!	!	!	!	!LO:SIC:v:o=8cc#\	!	!	!
8E\	8r	8r	8ccc#\L	.	.	.	.	.	4c#/	4r	.	(8cc#\	.	(>8ccc#\L	.
!	!	!	!	!	!	!	!	!	!	!	!	!LO:SIC:v:o=8b\J	!	!	!
8r	8e 8B/	8g#/	8bb\J	.	.	.	.	.	.	.	.	8b\J)	.	8bb\J)	.
*	*Xrep	*	*	*	*	*	*	*	*	*	*	*	*	*	*
=27	=27	=27	=27	=27	=27	=27	=27	=27	=27	=27	=27	=27	=27	=27	=27
.	.	8qdd#/	8qddd#/	.	.	.	.	.	.	.	.	.	.	8qddd#/	.
8BB/	8r	(>8cc#\L	(>8ccc#\L	8b/	8B/	.	8f#\	.	4e/	8r	.	8r	.	(>8ccc#\L	.
8r	8a 8B/	8b\J)	8bb\J)	8r	8r	.	8r	.	.	8f#/	.	8a\	.	8bb\J)	.
8BB/	8r	8bb\L	8fff#\L	8b/	8B/	.	8f#\	.	4e/	8r	.	8r	.	8fff#\L	.
8r	8a 8B/	8dd#\J	8bb\J	8r	8r	.	8r	.	.	8f#/	.	8a\	.	8bb\J	.
!	!	!	!	!	!	!	!	!	!	!	!	!LO:LB:g=original	!	!	!
=28	=28	=28	=28	=28	=28	=28	=28	=28	=28	=28	=28	=28	=28	=28	=28
8E\L	8g#L 8B/	8ee\L	8ee\L	8e/L	8G#/L	.	8e\L	.	8d#/L	8e/L	.	8g#\L	.	8ee\L	.
8E\J	8g# 8B/	16gg#\L	16gg#\L	8e/J	8G#/J	.	8e\J	.	8d#/J	8e/J	.	8g#\J	.	16gg#\L	.
.	.	16bb\JJ	16bb\JJ	.	.	.	.	.	.	.	.	.	.	16bb\JJ	.
4E\	8g#J 8B/	8eee\	8eee\	4e/	8G#/	.	8e\	.	8d#/	8e/	.	8g#\	.	8eee\	.
!	!	!LO:TX:t=P:problem=brak pauzy 8r:mod=	!LO:TX:t=P:problem=brak pauzy 8r:mod=	!	!	!	!	!	!LO:TX:t=P:problem=brak pauzy 8r:mod=	!LO:TX:t=P:problem=brak pauzy 8r:mod=	!	!	!	!	!
.	8r	8ryy	8ryy	.	8r	.	8r	.	8ryy	8ryy	.	8r	.	8r	.
=29:|!|:	=29:|!|:	=29:|!|:	=29:|!|:	=29:|!|:	=29:|!|:	=29:|!|:	=29:|!|:	=29:|!|:	=29:|!|:	=29:|!|:	=29:|!|:	=29:|!|:	=29:|!|:	=29:|!|:	=29:|!|:
!!!key: A
*>D	*>D	*>D	*>D	*>D	*>D	*>D	*>D	*>D	*>D	*>D	*>D	*>D	*>D	*>D	*
*k[f#c#g#]	*k[f#c#g#]	*	*k[f#c#g#]	*	*	*	*	*	*k[f#c#g#]	*k[f#c#g#]	*	*k[f#c#g#]	*	*k[f#c#g#]	*
!LO:TX:t=P:problem:brak przedtaktu:mod=	!LO:TX:t=P:problem:brak przedtaktu:mod=	!	!	!LO:TX:t=P:problem:brak przedtaktu:mod=	!LO:TX:t=P:problem:brak przedtaktu:mod=	!	!LO:TX:t=P:problem:brak przedtaktu:mod=	!	!	!	!	!LO:TX:t=P:problem:brak przedtaktu:mod=	!	!	!
8ryy	8ryy	8r	16cc#\LL	8ryy	8ryy	.	8ryy	.	8r	8r	.	8ryy	.	16ccc#\LL	.
!	!	!	!LO:MO:mod=16dd\JJ	!	!	!	!	!	!	!	!	!	!	!	!
.	.	.	16ddn\JJ	.	.	.	.	.	.	.	.	.	.	16ddd\JJ	.
!	!	!LO:LB:g=original	!LO:LB:g=original	!	!	!	!	!	!	!	!	!	!	!	!
=	=	=	=	=	=	=	=	=	=	=	=	=	=	=	=
!	!	!	!	!LO:TX:a:t=8	!	!	!LO:TX:a:t=8:mod=	!	!	!	!LO:MO:mod= 	!	!	!	!
4E\	8r	2ryyyy	8cc#\L	0r	0r	.	0r	.	8r	8r	p	8r	.	8ccc#'>\L	.
!	!	!	!	!	!	!	!	!	!	!	!	!	!LO:DY:t= :mod=%s	!	!
!	!	!	!	!	!	!	!	!	!	!	!	!	!LO:MO:mod=!LO&colon;DY&colon;ed=brack	!	!
!	!LO:MO:mod=8eL 8d/	!	!	!	!	!	!	!	!	!	!LO:DY:t= :mod=%s	!LO:MO:mod=8g#\L	!null	!	!
.	8eL 8dn/	.	8b\J	.	.	.	.	.	8d/L	8d/L	p	8g#X\L	p	8bb'>\J	.
4r	8e 8d/	.	8b\L	.	.	.	.	.	8d/	8d/	.	8g#\	.	(>8bb\L	.
.	8eJ 8d/	.	8cc#\J	.	.	.	.	.	8d/J	8d/J	.	8g#\J	.	8ccc#\J)	.
=30	=30	=30	=30	=30	=30	=30	=30	=30	=30	=30	=30	=30	=30	=30	=30
4AA/	8r	2ryyyy	8b/L	.	.	.	.	.	8r	8r	.	8r	.	8bb'>\L	.
.	8eL 8c#/	.	8a/J	.	.	.	.	.	8c#/L	8c#/L	.	8a\L	.	8aa'>\J	.
4r	8e 8c#/	.	(<8a/L	.	.	.	.	.	8c#/	8c#/	.	8a\	.	(>8aa\L	.
.	8eJ 8c#/	.	8b/J)	.	.	.	.	.	8c#/J	8c#/J	.	8a\J	.	8bb\J)	.
!LO:LB:g=original	!LO:LB:g=original	!	!	!	!	!	!	!	!	!	!	!	!	!LO:LB:g=original	!
=31	=31	=31	=31	=31	=31	=31	=31	=31	=31	=31	=31	=31	=31	=31	=31
4E\	8r	2ryyyy	8a/L	.	.	.	.	.	8r	8r	.	8r	.	8aa\L	.
!	!LO:MO:mod=8eL 8d/	!	!	!	!	!	!	!	!	!	!	!	!	!	!
.	8eL 8dn/	.	8g#/	.	.	.	.	.	8d/L	8d/L	.	8g#\L	.	8gg#\	.
4r	8e 8d/	.	8f#/	.	.	.	.	.	8d/	8d/	.	8g#\	.	8ff#\	.
.	8eJ 8d/	.	8g#/J	.	.	.	.	.	8d/J	8d/J	.	8g#\J	.	8gg#\J	.
=32	=32	=32	=32	=32	=32	=32	=32	=32	=32	=32	=32	=32	=32	=32	=32
!	!	!	!LO:TX:t=P:problem=mixed beam:mod=	!	!	!	!	!	!	!	!	!	!	!	!
4AA/	8r	2ryyyy	(16a/LL	.	.	.	.	.	8r	8r	.	8r	.	(>16aa\LL	.
.	.	.	16aa\)	.	.	.	.	.	.	.	.	.	.	16aaa\)	.
.	8eL 8c#/	.	16gg#'>\	.	.	.	.	.	8c#/L	8c#/L	.	8a\L	.	16ggg#'>\	.
.	.	.	16ff#'>\JJ	.	.	.	.	.	.	.	.	.	.	16fff#'>\JJ	.
4r	8e 8c#/	.	8ee'>\L	.	.	.	.	.	8c#/	8c#/	.	8a\	.	8eee'>\L	.
.	8eJ 8c#/	.	(>16cc#\L	.	.	.	.	.	8c#/J	8c#/J	.	8a\J	.	(>16ccc#\L	.
!	!	!	!LO:MO:mod=16dd\JJ)	!	!	!	!	!	!	!	!	!	!	!	!
.	.	.	16ddn\JJ)	.	.	.	.	.	.	.	.	.	.	16ddd\JJ)	.
=33	=33	=33	=33	=33	=33	=33	=33	=33	=33	=33	=33	=33	=33	=33	=33
8E\	8r	2ryyyy	8cc#'>\L	0r	0r	.	0r	.	8r	8r	.	8r	.	8ccc#'>\L	.
!	!LO:MO:mod=8e 8d/	!	!	!	!	!	!	!	!	!	!	!	!	!	!
8r	8e 8dn/	.	8b'>\J	.	.	.	.	.	8d/L	8d/L	.	8g#\L	.	8bb'>\J	.
8E\	8r	.	(>8b\L	.	.	.	.	.	8d/	8d/	.	8g#\	.	(>8bb\L	.
8r	8e 8d/	.	8cc#\J)	.	.	.	.	.	8d/J	8d/J	.	8g#\J	.	8ccc#\J)	.
=34	=34	=34	=34	=34	=34	=34	=34	=34	=34	=34	=34	=34	=34	=34	=34
8AA/	8r	2ryyyy	8b'</L	.	.	.	.	.	8r	8r	.	8r	.	8bb'>\L	.
8r	8e 8c#/	.	8a'</J	.	.	.	.	.	8c#/L	8c#/L	.	8a\L	.	8aa'>\J	.
8A\	8r	.	(<8a/L	.	.	.	.	.	8c#/	8c#/	.	8a\	.	(>8aa\L	.
8r	8e 8c#/	.	8b/J)	.	.	.	.	.	8c#/J	8c#/J	.	8a\J	.	8bb\J)	.
!	!	!	!LO:LB:g=original	!	!	!	!	!	!	!	!	!	!	!	!
=35	=35	=35	=35	=35	=35	=35	=35	=35	=35	=35	=35	=35	=35	=35	=35
8E\	8r	2ryyyy	8a/L	.	.	.	.	.	8r	8r	.	8r	.	8aa\L	.
!	!LO:MO:mod=8e 8d/	!	!	!	!	!	!	!	!	!	!	!	!	!	!
8r	8e 8dn/	.	8g#/	.	.	.	.	.	8d/L	8d/L	.	8g#\L	.	8gg#\	.
8E\	8r	.	8f#/	.	.	.	.	.	8d/	8d/	.	8g#\	.	8ff#\	.
8r	8e 8d/	.	8g#/J	.	.	.	.	.	8d/J	8d/J	.	8g#\J	.	8gg#\J	.
!	!	!	!	!	!	!	!	!	!	!	!	!LO:LB:g=original	!	!	!
=36	=36	=36	=36	=36	=36	=36	=36	=36	=36	=36	=36	=36	=36	=36	=36
!LO:TX:t=P:problem=mixed beam:mod=	!	!	!	!	!	!	!	!	!	!	!	!	!	!	!
8AA/L	8eL 8c#/	2ryyyy	8a/L	.	.	.	.	.	8c#/L	8c#/L	.	8a\L	.	8aa'>\L	.
8A\J	8e 8c#/	.	16cc#/L	.	.	.	.	.	8c#/J	8c#/J	.	8a\J	.	(>16ccc#\L	.
.	.	.	16ee/JJ	.	.	.	.	.	.	.	.	.	.	16eee\JJ)	.
8AA/	8eJ 8c#/	.	8aa\	.	.	.	.	.	8c#/	8c#/	.	4a\	.	8aaa\	.
8r	8r	.	8ryy	.	.	.	.	.	8ryy	8ryy	.	.	.	8ryy	.
==:|!	==:|!	==:|!	==:|!	==:|!	==:|!	==:|!	==:|!	==:|!	==:|!	==:|!	==:|!	==:|!	==:|!	==:|!	==:|!
*-	*-	*-	*-	*-	*-	*-	*-	*-	*-	*-	*-	*-	*-	*-	*-
!!!system-decoration: [(g1)][(g2)][(p7)][(s9,s10)]
!!!RDF**kern: > = above
!!!RDF**kern: < = below
!!!filter-modern: shed -e "s/:rj/:RJ/L" | sic -sq | modori -m | tie -s | autostem -r | shed -e "s/^(X?)rep$/$1REP/I" | shed -k -e "s/([\(\)\[\]])[><]/$1/g" | shed -e "s/yy//"
!!!ENC: Andrzej Gręziak
!!!END: 2020-10-03
!!!EED: Wojciech Jakubiak-Danek
!!!EEV: 2021-11-01
!!!ENC-modern: Andrzej Kubiczek
!!!END-modern: 2022-06-09
